img/why-we/pencil.svg

<svg width="34" height="34" viewBox="0 0 34 34" fill="none" xmlns="http://www.w3.org/2000/svg">
<g clip-path="url(#clip0_384_353)">
<path d="M31.2215 2.46174C30.1247 1.41121 28.9161 0.878906 27.6251 0.878906C25.6066 0.878906 24.1334 2.18301 23.7309 2.58249C23.1634 3.14398 3.82127 22.4942 3.82127 22.4942C3.69449 22.6209 3.60292 22.7799 3.55562 22.953C3.11992 24.565 0.934343 31.7175 0.912206 31.7899C0.799505 32.1562 0.90013 32.5557 1.16981 32.8253C1.36401 33.0185 1.62262 33.1222 1.88726 33.1222C1.99191 33.1222 2.09656 33.1061 2.1992 33.0729C2.27266 33.0487 9.65551 30.6629 10.8711 30.2996C11.0311 30.2513 11.178 30.1648 11.2967 30.0471C12.0645 29.2884 30.1045 11.4486 31.302 10.2119C32.5407 8.93595 33.1565 7.60569 33.1323 6.26234C33.1072 4.9351 32.4642 3.65716 31.2195 2.46274L31.2215 2.46174ZM23.4099 5.80048C23.9221 5.92424 25.1316 6.33077 26.3663 7.57651C27.6141 8.83533 27.9512 10.2743 28.0145 10.6023C24.058 14.5388 14.9504 23.5497 11.3601 27.1008C11.029 26.329 10.4927 25.3982 9.63036 24.5298C8.57782 23.4692 7.50616 22.8705 6.68003 22.5334C10.2331 18.9793 19.5127 9.69668 23.4089 5.80148L23.4099 5.80048ZM5.31455 24.231C5.86799 24.3779 7.01612 24.8045 8.18639 25.9838C9.08799 26.8935 9.51363 27.8957 9.70482 28.5075C8.30613 28.9573 5.24311 30.0139 3.29802 30.6418C3.87461 28.744 4.84866 25.7896 5.31455 24.231ZM29.8429 8.77294C29.8016 8.8152 29.7332 8.88363 29.6517 8.96614C29.3337 8.14705 28.7763 7.09451 27.8093 6.12046C26.8221 5.12528 25.8209 4.53864 25.0189 4.19148C25.0874 4.12406 25.1397 4.07073 25.1608 4.05061C25.2755 3.9369 26.321 2.93769 27.6231 2.93769C28.3728 2.93769 29.1093 3.27982 29.8117 3.95401C30.6449 4.75398 31.0756 5.54288 31.0896 6.29958C31.1037 7.07238 30.6831 7.90454 29.8419 8.77294H29.8429Z" fill="#FBD8D5"/>
</g>
<defs>
<clipPath id="clip0_384_353">
<rect width="32.2" height="32.2" fill="white" transform="translate(0.899902 0.899902)"/>
</clipPath>
</defs>
</svg>

<svg width="34" height="34" fill="none" xmlns="http://www.w3.org/2000/svg"><g clip-path="url(#clip0_384_353)"><path d="M31.221 2.462C30.125 1.412 28.916.879 27.625.879c-2.018 0-3.492 1.304-3.894 1.703-.568.562-19.91 19.912-19.91 19.912a1.035 1.035 0 00-.265.459C3.12 24.565.934 31.718.912 31.79c-.112.366-.012.766.258 1.035a1.017 1.017 0 001.03.248c.073-.024 7.456-2.41 8.671-2.773.16-.049.307-.135.426-.253.768-.759 18.807-18.598 20.005-19.835 1.239-1.276 1.855-2.606 1.83-3.95-.025-1.327-.668-2.605-1.912-3.8h.002zM23.41 5.8c.512.124 1.722.53 2.956 1.777 1.248 1.258 1.585 2.697 1.649 3.025A11392.34 11392.34 0 0111.36 27.101a8.279 8.279 0 00-1.73-2.571 8.908 8.908 0 00-2.95-1.997L23.409 5.801zM5.315 24.231c.553.147 1.701.573 2.871 1.753a6.284 6.284 0 011.519 2.523c-1.399.45-4.462 1.507-6.407 2.135.577-1.898 1.55-4.852 2.017-6.411zM29.843 8.773l-.191.193a8.31 8.31 0 00-1.843-2.846 8.931 8.931 0 00-2.79-1.929c.068-.067.12-.12.142-.14.114-.114 1.16-1.113 2.462-1.113.75 0 1.486.342 2.189 1.016.833.8 1.264 1.589 1.278 2.346.014.772-.407 1.605-1.248 2.473z" fill="#FBD8D5"/></g><defs><clipPath id="clip0_384_353"><path fill="#fff" transform="translate(.9 .9)" d="M0 0h32.2v32.2H0z"/></clipPath></defs></svg>
